X:8
T:Eibhlí Gheal Chúin
T:Gentle Fair Elly
M:6/8
R:Air
S:phelan-2/32
L:1/8
K:G
A | A>Bd e>de | f>ed e>de | f>ed d<BA | A3   ~A2A |
    A>Ba e>de | f>ed e>de | f>ed d<BA | A3   ~A2e |
    e>fg a>ba | a>gf e>dB | e>fg a>ba | g>fe d3   |
    e>fg a>ba | a>gf e>de | f>ed d<BA | A3   A2   |]

